!! 00000] TT[WS
!!!OTL: Huolang duishi
!!!ARE: Asia, China,ÿShanxi Dingxiang
!! Ethnic Group: Han
!! WI, 224
!!!SCT: J0268
!!!YEM: Copyright 1995, estate of Helmut Schaffrath.
**kern
*ICvox
*Ivox
*M2/4
*k[]
*C:
{8ee
16ee
16b
8ee
16ee
16b
=1
16ee
16dd
16ee
16ee
8cc
16b
16a
=2
8b
8ee
16ee
8ee
16b
=3
8a
16cc
16g
4e}
=4
{8ee
16ee
16ee
8cc
16b
16a
=5
8g
16a
16g
4e
=6
8ee
16ee
16b
8ee
16ee
16b
=7
16a
16g
16a
16g
8e
16e
16e}
=8
{8ee
16ee
16b
8ee
16ee
16b
=9
16a
16g
16a
16cc
4e
=10
8ee
16ee
16b
8ee
16ee
16b
=11
8ee
16ee
16ee
8cc
16b
16a}
=12
{8a
8ee
8ee
16ee
16b
=13
8a
16cc
16g
4e
=14
8ee
16ee
16b
8ee
16ee
16b
=15
8ee
16ee
16ee
8cc
16b
16a}
=16
{8a
8ee
8ee
16ee
16b
=17
8a
16cc
16g
8e
16e
16e
=18
8a
16b
16a
8g
16g
16e
=19
8a
16b
16a
8g
16g
16e
=20
8ee
16ee
16ee
8a
16b
16a
=21
2g}
==
!!!AGN: Xiaodiao. Qingge
!!!ONB: ESAC (Essen Associative Code) Database: CHINA
!!!AMT: simple duple
!!!AIN: vox
!!!EED: Helmut Schaffrath
!!!EEV: 1.0
*-
